packages/icons/src/components/Logo/assets/dark/nginx.svg

<svg width="20" height="20" viewBox="0 0 20 20" fill="none" xmlns="http://www.w3.org/2000/svg">
<path fill-rule="evenodd" clip-rule="evenodd" d="M10.0071 0C10.2454 0.113271 10.4759 0.238297 10.7024 0.378906C13.2883 1.86717 15.8743 3.35158 18.4602 4.83984C18.6634 4.94922 18.7806 5.17188 18.7571 5.40234C18.7532 8.53906 18.7571 11.6719 18.7532 14.8047C18.7181 14.9531 18.6282 15.0859 18.4993 15.168L10.2493 19.9141C10.1126 20.0195 9.92897 20.0273 9.78055 19.9414C7.02667 18.3633 4.27663 16.7812 1.52665 15.1953C1.3431 15.1094 1.22978 14.9218 1.24149 14.7188V5.24219C1.25449 5.07091 1.35825 4.91455 1.51883 4.83594C4.10084 3.35548 6.68292 1.86718 9.26493 0.382812C9.49537 0.250013 9.72198 0.113275 9.96024 0H10.0071ZM13.7532 5.00391C13.2064 5.05082 12.7727 5.48441 12.7259 6.03125C12.7259 7.93359 12.7141 9.83204 12.7259 11.7344C11.0501 9.75783 9.39382 7.76561 7.72587 5.78125C7.27664 5.20707 6.55397 4.91797 5.83524 5.03125C5.2806 5.08598 4.85477 5.543 4.83133 6.09766V13.8555C4.82352 14.1445 4.93293 14.4258 5.13602 14.6328C5.53053 15.0234 6.14384 15.082 6.60868 14.7812C6.91337 14.5742 7.09696 14.2266 7.09696 13.8594C7.09696 11.9883 7.09305 10.1172 7.09696 8.24609C8.80398 10.289 10.5149 12.3281 12.2259 14.3672C12.7102 14.8554 13.4095 15.0664 14.0813 14.9258C14.5618 14.832 14.9251 14.4336 14.9759 13.9453C14.9798 11.3047 14.9798 8.66796 14.9759 6.03125C14.9212 5.41017 14.3743 4.94922 13.7532 5.00391Z" fill="#019639"/>
</svg>

<svg xmlns="http://www.w3.org/2000/svg" width="20" height="20" fill="none" viewBox="0 0 20 20">
    <path fill="#019639" fill-rule="evenodd" d="M10.007 0q.356.168.695.379l7.758 4.46c.203.11.32.333.297.563-.004 3.137 0 6.27-.004 9.403a.6.6 0 0 1-.254.363l-8.25 4.746a.42.42 0 0 1-.468.027q-4.13-2.367-8.254-4.746a.49.49 0 0 1-.286-.476V5.242a.5.5 0 0 1 .278-.406C4.1 3.356 6.683 1.867 9.265.383c.23-.133.457-.27.695-.383zm3.746 5.004c-.547.047-.98.48-1.027 1.027 0 1.903-.012 3.801 0 5.703-1.676-1.976-3.332-3.968-5-5.953a2 2 0 0 0-1.89-.75 1.12 1.12 0 0 0-1.005 1.067v7.757c-.007.29.102.57.305.778.395.39 1.008.449 1.473.148.304-.207.488-.554.488-.922 0-1.87-.004-3.742 0-5.613q2.561 3.063 5.129 6.121a2.03 2.03 0 0 0 1.855.559c.48-.094.844-.492.895-.98q.006-3.96 0-7.915a1.13 1.13 0 0 0-1.223-1.027" clip-rule="evenodd"/>
</svg>
